X:559
T:Ton, The
C:Joe Buchanan's Scottish Tome - Page 144.3
I:144 3
D:[end Reels]
Z:Carl Allison
R:Reel
L:1/8
M:4/4
K:A
c/d/ | ea ac/d/ | ce ec/B/ | AA BB | c/A/c/d/ dc/d/ |
ea ac/d/ | ce ec/B/ | AA BB | A2 A :|
c/d/ | ea fd | ea fd | e>c Ac | B/A/B/c/ Bc/d/ |
e>a fd | ea fd | c/e/c/A/ B/d/B/G/ | A2 A :|

